X: 24109
T: Long Walk To Ferryland, The
R: polka
M: 2/4
K: Edorian
[M:2/4]|:dc BE/E/|ED FA|FD GA|FA EA|
dc BE/E/|ED FA|FD GA|1 [M:3/4] FA GD EA:|2 [M:3/4] FA GD E2||
[M:2/4]|:Bd ee/e/|ed gf|ed Be|[M:3/4] ed ef eA|
[M:2/4] Bd ee/e/|ed gf|eA ba/g/|1 [M:3/4] fe ed eA:|2 [M:3/4] fe ed e2||

